!!!!SEGMENT: d-dl--mus-4327-k-1_radziwill-antoni-henryk--romance-francaise-l-amour-charmoit-ma-vie.krn
!!!cenid: 18xx:4236
!!!COM: Radziwiłł, Antoni Henryk
!!!COM-rismID: pe32624
!!!CDT:
!!!CNT:
!!!OTL: Romance Française/L'amour charmoit ma vie
!!!PDT:
!!!AGN:
!!!SMS-siglum: D-Dl
!!!SMS-shelfmark: Mus.4327-K-1
!!!SMS-shelfwork: W
!!!SMS-variant:
!!!SMS-altvar:
!!!NIFC-rismSourceID: 211012310
!!!NIFC-rismChildID: 211012310
!!!NIFC-islandoraID: none
!!!URL-pdf-islandora:
!!!URL-scan: https://digital.slub-dresden.de/werkansicht/dlf/431172/1
!!!IIIF:
!!!ONB-nifc:
!!!AIN: 3 empty
!!!key: b
**kern	**kern	**dynam	**kern	**text	**dynam
*part3	*part2	*part2	*part1	*part1	*part1
*staff3	*staff2	*	*staff1	*staff1	*
*Iempty	*Iempty	*	*Iempty	*	*
*I"Accompag:	*I"Accompag:	*	*I"Chant.	*	*
*I'pf	*I'pf	*	*I'V	*	*
*clefF4	*clefG2	*	*clefG2	*	*
*b:	*b:	*	*b:	*	*
*k[f#c#]	*k[f#c#]	*	*k[f#c#]	*	*
*M6/8	*M6/8	*	*M6/8	*	*
!!LO:TX:t=P:problem:all\right	!	!	!	!	!
!	!	!	!LO:TX:a:B:t=Moderé.	!	!
8r	8r	.	8b\	L'a-	.
=1	=1	=1	=1	=1	=1
4.BB/	8r	.	(8dd\L	-mour	.
.	8B/L 8d 8f#	.	8cc#\J)	.	.
.	8B/J 8d 8f#	.	8b\	char-	.
.	.	.	16qqb/LL	.	.
.	.	.	16qqcc#/JJ	.	.
4.BB/	8r	.	(8dd\L	-moit	.
.	8B/L 8d 8f#	.	8cc#\J)	.	.
.	8B/J 8d 8f#	.	8b\	ma	.
=2	=2	=2	=2	=2	=2
4.F#\	8r	.	8dd\	vi-	.
.	8A#X/L 8c# 8f#	.	8cc#\	-e	.
.	8A#/J 8c# 8f#	.	8r	.	.
4.F#\	8r	.	4r	.	.
.	8A#X/L 8c# 8f#	.	.	.	.
.	8A#/J 8c# 8f#	.	8r	.	.
=3	=3	=3	=3	=3	=3
4.E\	8r	.	8cc#\	L'a-	.
.	8An/L 8c# 8g	.	8b\	-mour	.
.	8A/J 8c# 8g	.	8a\	fai-	.
4.AA/	8r	.	8a\	-soit	.
.	8A/L 8c# 8g	.	8b\	mon	.
.	8A/J 8c# 8g	.	8cc#\	bon-	.
=4	=4	=4	=4	=4	=4
4.D\	8r	.	4.dd\	-heur:	.
.	8A/L 8d 8f#	.	.	.	.
.	8A/J 8d 8f#	.	.	.	.
4.D\	8r	.	4r	.	.
.	8A/L 8d 8f#	.	.	.	.
.	8A/J 8d 8f#	.	8r	.	.
!!LO:LB:g=original	!	!	!	!	!
=5	=5	=5	=5	=5	=5
4.F#\	8r	.	8dd\	je	.
.	8A/L 8d 8a	.	8dd\	plai-	.
.	8A/J 8d 8a	.	8dd\	-sois	.
4.Fn\	8r	.	4dd\	ci	.
.	8A/L 8d 8a	.	.	.	.
.	8A/J 8d 8a	.	8dd\	Syl-	.
=6	=6	=6	=6	=6	=6
4.E\	8r	.	(8cc#\L	-vi-	.
.	8A/L 8g	.	8gg\J)	.	.
.	8A/J 8g	.	8gg\	-e	.
4.AA/	8r	.	8r	.	.
.	8c#/L 8e 8g	.	8r	.	.
.	8c#/J 8e 8g	.	8gg\	et	.
=7	=7	=7	=7	=7	=7
4D\	4d/ 4f#	.	4ff#\	j'ai	.
8E\	8c#/ 8e	.	8ee\	per-	.
4F#\	4B/ 4d	.	4dd\	-dui	.
8FF#/	8A#X/ 8c#	.	8cc#\	son	.
=8||	=8||	=8||	=8||	=8||	=8||
*M4/4	*M4/4	*	*M4/4	*	*
*met(c)	*met(c)	*	*met(c)	*	*
*	*	*	*2\right	*	*
!	!LO:TUP:b:problem:klamra łukowa	!	!LO:TX:a:i:t=Plus lentement.	!	!
4BBB\ 4BB	24F#</LL	.	2b\	coeur	.
.	24B</	.	.	.	.
.	24d/	.	.	.	.
.	24f#/	.	.	.	.
.	24d/	.	.	.	.
.	24B</JJ	.	.	.	.
*	*Xtuplet	*	*	*	*
!	!LO:TUP:b:problem:klamra łukowa	!	!	!	!
4r	24F#</LL	.	.	.	.
.	24B</	.	.	.	.
.	24d/	.	.	.	.
.	24f#/	.	.	.	.
.	24d/	.	.	.	.
.	24B</JJ	.	.	.	.
!	!LO:TUP:b:problem:klamra łukowa	!	!	!	!
2rC	24F#</LL	.	4r	.	.
.	24B</	.	.	.	.
.	24d/	.	.	.	.
.	24f#/	.	.	.	.
.	24d/	.	.	.	.
.	24B</JJ	.	.	.	.
!	!LO:TUP:b:problem:klamra łukowa	!	!	!	!
.	24F#</LL	.	4f#/	Fe-	.
.	24B</	.	.	.	.
.	24d/	.	.	.	.
.	24f#/	.	.	.	.
.	24d/	.	.	.	.
.	24B</JJ	.	.	.	.
!!LO:LB:g=original	!	!	!	!	!
=9	=9	=9	=9	=9	=9
!	!LO:TUP:b:problem:klamra łukowa	!LO:HP:b=2	!	!	!
!	!	!LO:DY:b=2	!	!	!
!	!	!LO:DY:t=for.	!	!	!
1BBB 1BB	24F#</LL	f >	[2dd\	-li-	.
.	24B</	.	.	.	.
.	24d/	.	.	.	.
.	24f#/	.	.	.	.
.	24d/	.	.	.	.
.	24B</JJ	.	.	.	.
!	!LO:TUP:b:problem:klamra łukowa	!	!	!	!
.	24F#</LL	.	.	.	.
.	24B</	.	.	.	.
.	24d/	.	.	.	.
.	24f#/	.	.	.	.
.	24d/	.	.	.	.
.	24B</JJ	.	.	.	.
!	!LO:TUP:b:problem:klamra łukowa	!	!	!	!
.	24F#</LL	.	8dd\]	.	.
.	24B</	.	.	.	.
.	24d/	.	.	.	.
.	24f#/	.	8dd\	-ci-	.
.	24d/	.	.	.	.
.	24B</JJ	.	.	.	.
!	!LO:TUP:b:problem:klamra łukowa	!	!	!	!
.	24F#</LL	.	8cc#\	-te	.
.	24B</	.	.	.	.
.	24d/	.	.	.	.
.	24f#/	.	8b\	pas-	.
.	24d/	.	.	.	.
.	24B</JJ	]]	.	.	.
=10	=10	=10	=10	=10	=10
!	!LO:TUP:b:problem:klamra łukowa	!	!	!	!
.	.	.	16qqb/	.	.
4FF#\	24F#</LL	.	4a#X/	-se-	.
.	24A#X</	.	.	.	.
.	24c#</	.	.	.	.
.	24e</	.	.	.	.
.	24c#</	.	.	.	.
.	24A#</JJ	.	.	.	.
!	!LO:TUP:b:problem:klamra łukowa	!	!	!	!
(>4f#>/	24F#</LL	.	4a#/	-e	.
.	24A#</	.	.	.	.
.	24c#</	.	.	.	.
.	24e</	.	.	.	.
.	24c#</	.	.	.	.
.	24A#</JJ	.	.	.	.
!	!LO:TUP:b:problem:klamra łukowa	!	!	!	!
4gn>/	24F#</LL	.	4r	.	.
.	24A#</	.	.	.	.
.	24c#</	.	.	.	.
.	24e</	.	.	.	.
.	24c#</	.	.	.	.
.	24A#</JJ	.	.	.	.
!	!LO:TUP:b:problem:klamra łukowa	!	!	!	!
4f#>/)	24F#</LL	.	4f#/	qui	.
.	24A#</	.	.	.	.
.	24c#</	.	.	.	.
.	24e</	.	.	.	.
.	24c#</	.	.	.	.
.	24A#</JJ	.	.	.	.
=11	=11	=11	=11	=11	=11
!	!LO:TUP:b:problem:klamra łukowa	!	!	!	!
1FF#	24F#</LL	.	[2ee\	ne	.
.	24A#X</	.	.	.	.
.	24c#</	.	.	.	.
.	24e</	.	.	.	.
.	24c#</	.	.	.	.
.	24A#</JJ	.	.	.	.
!	!LO:TUP:b:problem:klamra łukowa	!	!	!	!
.	24F#</LL	.	.	.	.
.	24A#</	.	.	.	.
.	24c#</	.	.	.	.
.	24e</	.	.	.	.
.	24c#</	.	.	.	.
.	24A#</JJ	.	.	.	.
!	!LO:TUP:b:problem:klamra łukowa	!	!	!	!
.	24F#</LL	.	8ee\]	.	.
.	24A#</	.	.	.	.
.	24c#</	.	.	.	.
.	24e</	.	8ee\	peut	.
.	24c#</	.	.	.	.
.	24A#</JJ	.	.	.	.
!	!LO:TUP:b:problem:klamra łukowa	!	!	!	!
.	24F#</LL	.	8dd\	re-	.
.	24A#</	.	.	.	.
.	24c#</	.	.	.	.
.	24e</	.	8cc#\	-ve-	.
.	24c#</	.	.	.	.
.	24A#</JJ	.	.	.	.
!!LO:LB:g=original	!	!	!	!	!
=12	=12	=12	=12	=12	=12
*	*tuplet	*	*	*	*
!	!LO:TUP:b:problem:klamra łukowa	!	!	!	!LO:DY:a
1DD 1D	24F#</LL	.	4.ff#\	-nir	f
.	24B</	.	.	.	.
.	24d/	.	.	.	.
.	24f#/	.	.	.	.
.	24d/	.	.	.	.
.	24B/JJ	.	.	.	.
*	*Xtuplet	*	*	*	*
!	!LO:TUP:b:problem:klamra łukowa	!	!	!	!
.	24F#</LL	.	.	.	.
.	24B</	.	.	.	.
.	24d/	.	.	.	.
.	24f#/	.	8ff#\	tour-	.
.	24d/	.	.	.	.
.	24B</JJ	.	.	.	.
!	!LO:TUP:b:problem:klamra łukowa	!	!	!	!
.	24F#</LL	.	8ee\	-ment	.
.	24B</	.	.	.	.
.	24d/	.	.	.	.
.	24f#/	.	8dd\	de	.
.	24d/	.	.	.	.
.	24B</JJ	.	.	.	.
!	!LO:TUP:b:problem:klamra łukowa	!	!	!	!
.	24F#</LL	.	8cc#\	ma	.
.	24B</	.	.	.	.
.	24d/	.	.	.	.
.	24f#/	.	8b\	pen-	.
.	24d/	.	.	.	.
.	24B</JJ	.	.	.	.
=13	=13	=13	=13	=13	=13
!	!LO:TUP:b:problem:klamra łukowa	!	!	!	!
1EE 1E	24G</LL	.	(8.b\L	-se-	.
.	24B</	.	.	.	.
.	24e/	.	.	.	.
.	24g/	.	.	.	.
.	24e/	.	.	.	.
.	.	.	16ggn\Jk)	.	.
.	24B</JJ	.	.	.	.
!	!LO:TUP:b:problem:klamra łukowa	!	!	!	!
.	24G</LL	.	8gg\	-e	.
.	24B</	.	.	.	.
.	24e/	.	.	.	.
.	24g/	.	8gg\	que	.
.	24e/	.	.	.	.
.	24B</JJ	.	.	.	.
!	!LO:TUP:b:problem:klamra łukowa	!	!	!	!
.	24G</LL	.	8gg\	n'ai-	.
.	24B</	.	.	.	.
.	24e/	.	.	.	.
.	24g/	.	8ff#\	-j'en-	.
.	24e/	.	.	.	.
.	24B</JJ	.	.	.	.
!	!LO:TUP:b:problem:klamra łukowa	!	!	!	!
.	24G</LL	.	8ee\	-te	.
.	24B</	.	.	.	.
.	24e/	.	.	.	.
.	24g/	.	8dd\	per-	.
.	24e/	.	.	.	.
.	24B</JJ	.	.	.	.
=14	=14	=14	=14	=14	=14
!	!LO:TUP:b:problem:klamra łukowa	!	!	!	!
2AAAn/ 2AAn	24G</LL	.	2.cc#\	-dant	.
.	24c#/	.	.	.	.
.	24e/	.	.	.	.
.	24g/	.	.	.	.
.	24e/	.	.	.	.
.	24c#/JJ	.	.	.	.
!	!LO:TUP:b:problem:klamra łukowa	!	!	!	!
.	24G</LL	.	.	.	.
.	24c#/	.	.	.	.
.	24e/	.	.	.	.
.	24g/	.	.	.	.
.	24e/	.	.	.	.
.	24c#/JJ	.	.	.	.
!	!LO:TUP:b:problem:klamra łukowa	!	!	!	!
2AAA#X/ 2AA#X	24G</LL	.	.	.	.
.	24c#/	.	.	.	.
.	24e/	.	.	.	.
.	24g/	.	.	.	.
.	24e/	.	.	.	.
.	24c#/JJ	.	.	.	.
!	!LO:TUP:b:problem:klamra łukowa	!	!	!	!
.	24G</LL	.	(8dd\L	per-	.
.	24c#/	.	.	.	.
.	24e/	.	.	.	.
.	24g/	.	8ee\J)	.	.
.	24e/	.	.	.	.
.	24c#/JJ	.	.	.	.
!!LO:PB:g=original	!	!	!	!	!
=15	=15	=15	=15	=15	=15
*2\right	*	*	*	*	*
*	*tuplet	*	*	*	*
!	!LO:TUP:b:problem:klamra łukowa	!	!	!	!LO:DY:a
2BBB/ 2BB	24F#</LL	.	4.dd\	-du	pp
.	24B</	.	.	.	.
.	24d/	.	.	.	.
.	24f#/	.	.	.	.
.	24d/	.	.	.	.
.	24B</JJ	.	.	.	.
*	*Xtuplet	*	*	*	*
!	!LO:TUP:b:problem:klamra łukowa	!	!	!	!
.	24F#</LL	.	.	.	.
.	24B</	.	.	.	.
.	24d/	.	.	.	.
.	24f#/	.	8dd\	le	.
.	24d/	.	.	.	.
.	24B</JJ	.	.	.	.
!	!LO:TUP:b:problem:klamra łukowa	!	!	!	!
2FF#\	24F#</LL	.	4.cc#\	sou-	.
.	24A#X</	.	.	.	.
.	24c#/	.	.	.	.
.	24f#/	.	.	.	.
.	24c#/	.	.	.	.
.	24A#</JJ	.	.	.	.
!	!LO:TUP:b:problem:klamra łukowa	!	!	!	!
.	24F#</LL	.	.	.	.
.	24A#</	.	.	.	.
.	24c#/	.	.	.	.
.	24f#/	.	8cc#\	-ve-	.
.	24c#/	.	.	.	.
.	24A#</JJ	.	.	.	.
=16	=16	=16	=16	=16	=16
!	!LO:TUP:b:problem:klamra łukowa	!	!	!	!
4BBB\ 4BB	24F#</LL	.	2b\	-nir.	.
.	24B</	.	.	.	.
.	24d/	.	.	.	.
.	24f#/	.	.	.	.
.	24d/	.	.	.	.
.	24B</JJ	.	.	.	.
!	!LO:TUP:b:problem:klamra łukowa	!	!	!	!
4BBB\ 4BB	24F#</LL	.	.	.	.
.	24B</	.	.	.	.
.	24d/	.	.	.	.
.	24f#/	.	.	.	.
.	24d/	.	.	.	.
.	24B</JJ	.	.	.	.
2r	2ryy	.	2ryy	.	.
==	==	==	==	==	==
*-	*-	*-	*-	*-	*-
!!!system-decoration: [(s1,{s2,s3})]
!!!RDF**kern: > = above
!!!RDF**kern: < = below
!!!ENC: Andrzej Gręziak
!!!END: 2022-10-18
!!!ENC: Jan Barakat
!!!END: 2022-10-19
!!!YEC: Copyright 2022 Narodowy Instytut Fryderyka Chopina (https://polishscores.org)
!!!YEM: License CC-BY-4.0 (https://creativecommons.org/licenses/by/4.0)
